static/images/tech-icons/dark/angular.svg

<svg height="44" viewBox="0 0 172 44" width="172" xmlns="http://www.w3.org/2000/svg"><g fill="none"><g fill="#000" transform="translate(44.25 11.435028)"><path d="m2.35175 2.91220339 10.8315 14.17819211v-14.17819211h2.16525v17.60024861h-2.2895l-10.8305-14.30273449v14.30273449h-2.1665v-17.60024861z"/><path d="m32.9245 19.8231186c-1.427.5424181-2.96675.8126328-4.617.8126328-6.41075 0-9.6175-3.0561356-9.6175-9.1694011 0-5.78488137 3.0945-8.67769493 9.2825-8.67769493 1.7755 0 3.42625.24684745 4.95175.73979661v1.96906214c-1.52575-.57448587-3.0945-.86210169-4.70425-.86210169-4.8265 0-7.23925 2.27780791-7.23925 6.83093787 0 4.8817627 2.375 7.323887 7.1295 7.323887.75825 0 1.59975-.0989379 2.52475-.296565v-5.9810169h2.2895z"/><path d="m36.57625 13.7185537v-10.80560455h2.28825v10.80535595c0 3.3805424 1.69225 5.072678 5.076 5.072678 3.38275 0 5.075-1.6923842 5.075-5.072678v-10.80535595h2.2895v10.80535595c0 4.6130395-2.45475 6.9181921-7.3645 6.9181921-4.9095.0002486-7.36425-2.3051526-7.36425-6.9179435z"/><path d="m66.9395 18.6669379v1.8455141h-11.54875v-17.60024861h2.2885v15.75473451z"/><path d="m76.66725.59064407 8.80025 19.92230513h-2.53675l-2.29075-5.5395255h-5.853l.63075-1.8440226h4.456l-3.305-7.97667794-6.3255 15.36022604h-2.376z"/><path d="m87.8815 20.512452v-17.60024861h7.55075c3.36725 0 5.05025 1.40775141 5.05025 4.22126554 0 2.2899887-1.64525 3.98461017-4.9385 5.08287007l6.07725 8.296113h-3.02025l-5.631-7.9135367v-1.4880452c3.3825-.5347119 5.07375-1.8268701 5.07375-3.87746897 0-1.6240226-.9405-2.43764972-2.82075-2.43764972h-5.0515v15.71744629h-2.28975z"/><path d="m110.1995 2.91220339v12.52980791c0 3.3802938-2.00125 5.0701921-6.00425 5.0701921v-1.8457627c2.476 0 3.71425-1.0761356 3.71425-3.224678v-12.52955931z"/><path d="m114.28425 19.8969492v-2.0926102c1.85725.6562712 3.86175.9856497 6.01575.9856497 3.045 0 4.568-1.1079548 4.568-3.3251073 0-1.8842938-1.12325-2.8301695-3.3675-2.8301695h-2.27825c-3.70425 0-5.55825-1.5989153-5.55825-4.79923167 0-3.36363842 2.37375-5.04732204 7.11975-5.04732204 2.06225 0 3.9805.2480904 5.75525.73979661v2.09236158c-1.77525-.65701694-3.693-.98540113-5.75525-.98540113-3.21875 0-4.82775 1.06718644-4.82775 3.20056498 0 1.88628248 1.0885 2.83016947 3.26625 2.83016947h2.27825c3.77 0 5.657 1.6011526 5.657 4.7992317 0 3.4474124-2.2855 5.17087-6.858 5.17087-2.1535 0-4.158-.247096-6.01525-.7388022z"/><path d="m2.93075 2.33722034 10.8305 14.17844066v-14.17844066h2.1665v17.60024856h-2.28975l-10.83125-14.30273444v14.30273444h-2.1655v-17.60024856z"/><path d="m33.50375 19.2481356c-1.427.5424181-2.966.8123842-4.61675.8123842-6.41125 0-9.6175-3.055887-9.6175-9.1691526 0-5.78488132 3.0945-8.67794347 9.28375-8.67794347 1.774 0 3.425.24709604 4.9505.73979661v1.96881356c-1.52575-.57448588-3.0945-.8621017-4.70325-.8621017-4.82675 0-7.24 2.27780791-7.24 6.8309379 0 4.8820113 2.376 7.3241355 7.12925 7.3241355.7585 0 1.601-.0984406 2.52575-.2965649v-5.9812656h2.2885z"/><path d="m37.15525 13.1430734v-10.80684741h2.28825v10.80659891c0 3.3802937 1.69225 5.071435 5.07625 5.071435 3.3825 0 5.07475-1.6913898 5.07475-5.071435v-10.80659891h2.2895v10.80659891c0 4.6127909-2.45475 6.9169491-7.36425 6.9169491-4.90975 0-7.3645-2.303661-7.3645-6.9167006z"/><path d="m67.51775 18.0909605v1.8455141h-11.54775v-17.60024861h2.2885v15.75473451z"/><path d="m77.24675.0139209 8.80025 19.9232994h-2.53825l-2.2895-5.5390282h-5.85425l.63225-1.8455141h4.45475l-3.304-7.976678-6.3255 15.3612203h-2.37625z"/><path d="m88.46075 19.9374689v-17.60024856h7.5505c3.3675 0 5.049 1.40675706 5.049 4.22151412 0 2.28874577-1.64425 3.98436154-4.93725 5.08237284l6.0775 8.2963616h-3.0215l-5.63025-7.9137853v-1.4895367c3.38275-.53471187 5.07475-1.82562713 5.07475-3.87746893 0-1.6240226-.9415-2.43640678-2.823-2.43640678h-5.05v15.71719771z"/><path d="m110.77875 2.33622599v12.53005651c0 3.3812881-2.00125 5.0701921-6.004 5.0701921v-1.8455141c2.47575 0 3.714-1.0763842 3.714-3.2249266v-12.52980791z"/><path d="m114.8625 19.3209718v-2.092113c1.8575.6560226 3.86175.9856497 6.016.9856497 3.04475 0 4.56775-1.108452 4.56775-3.3243616 0-1.8852881-1.123-2.8301695-3.3675-2.8301695h-2.27825c-3.70425 0-5.558-1.5999096-5.558-4.80047458 0-3.36363841 2.37275-5.04707344 7.1195-5.04707344 2.06225 0 3.98075.24809039 5.7555.73979661v2.09261017c-1.7755-.65726554-3.69325-.98564972-5.7555-.98564972-3.21875 0-4.82775 1.06718644-4.82775 3.20056497 0 1.88628249 1.08775 2.83016949 3.26625 2.83016949h2.27825c3.76975 0 5.657 1.6004068 5.657 4.800226 0 3.4466667-2.28525 5.1698757-6.85775 5.1698757-2.1535-.0002486-4.15825-.2473446-6.0155-.7390508z"/><path d="m93.71275 29.3318418-.84075-2.5418079h-.59775l1.16025 3.2117514c-.027.0698531-.07125.1762486-.13125.3199322-.0605.1436836-.096.2227345-.10525.2383955-.03125.0467345-.06975.0860113-.116.1180791-.046.0320678-.1175.0479774-.2145.0479774-.03125 0-.06775-.0032316-.10875-.0087006-.04075-.0057175-.10725-.0213785-.19875-.0467344v.4780339c.0585.015661.10825.0258531.14775.0320678.04.0054689.0975.0084519.17175.0084519.3045 0 .519-.0872542.64375-.2620113.125-.174757.33925-.6597514.644-1.4554802.129-.3378305.28875-.7753446.4805-1.3112994.2555-.7131978.421-1.1698531.49475-1.3702147h-.583zm-3.12175.2140339c-.38025 0-.64-.1715254-.779-.5155706-.0745-.1822147-.11125-.420113-.11125-.7134463 0-.405695.09025-.6970396.272-.8742825.18125-.1762486.39225-.2647458.63325-.2647458.276 0 .48525.1081356.62775.3234124.14225.2155255.21325.4874803.21325.8156159 0 .3691525-.07075.6662146-.21325.891435-.1425.2249717-.35675.3375819-.64275.3375819zm-1.37425.3641808h.48625v-.3987345c.1115.1498983.2165.2585311.31475.3263955.1645.1145989.3665.171774.60575.171774.4275 0 .76175-.1630734 1.00325-.4897175.24125-.3263955.3615-.7358192.3615-1.2290169 0-.5205424-.12175-.9143051-.36625-1.1812882-.24425-.266983-.56225-.4004745-.954-.4004745-.1885 0-.36275.0392768-.524.118079-.16075.0785537-.2985.1926554-.4145.3423051v-1.5526779h-.51275z"/></g><path d="m3.40525 34.3823955 17.4275 9.5243842 17.51725-9.6534012 3.2655-26.92998867-20.80475-7.10587571-20.67225 7.23389831z" fill="#000"/><path d="m25.935 23.3351638-5.1725 2.4050848h-5.45175l-2.56275 6.3737853-4.76675.0877514 12.78125-28.27310733zm-.5-1.21087-4.63825-9.1303729-3.8045 8.9732655h3.77z" fill="#fff"/><path d="m25.1135 21.9741469h-4.3415l-.00975 3.7603842 6.00325.0057175 2.80575 6.4625311 4.561.0840226-13.37-28.35812433.03425 9.06524293z" fill="#fff"/><g fill="#000" transform="translate(141.5 33.80791)"><path d="m12.7103675 5.28113356c0 1.38375028-1.08866 2.40340926-2.4246925 2.40340926s-2.4246925-1.01965898-2.4246925-2.40340926c0-1.3934974 1.08866-2.40340429 2.4246925-2.40340429s2.4246925 1.00990689 2.4246925 2.40340429zm-1.061415 0c0-.86470441-.630965-1.4563478-1.3632775-1.4563478s-1.363275.59164339-1.363275 1.4563478c0 .85604113.6309625 1.45635028 1.363275 1.45635028s1.3632775-.60139299 1.3632775-1.45635028z"/><path d="m17.941165 5.28113356c0 1.38375028-1.0886625 2.40340926-2.424695 2.40340926s-2.42469-1.01965898-2.42469-2.40340926c0-1.39241605 1.0886575-2.40340429 2.42469-2.40340429s2.424695 1.00990689 2.424695 2.40340429zm-1.0614175 0c0-.86470441-.6309625-1.4563478-1.3632775-1.4563478-.73231 0-1.363275.59164339-1.363275 1.4563478 0 .85604113.630965 1.45635028 1.363275 1.45635028.732315 0 1.3632775-.60139299 1.3632775-1.45635028z"/><path d="m22.95401 3.02292927v4.31486372c0 1.7749252-1.0526975 2.49984882-2.29719 2.49984882-1.17148 0-1.87655-.77910328-2.1424475-1.4162556l.924105-.38250915c.164555.39117989.5677625.85278712 1.2172525.85278712.796605 0 1.2902625-.4886983 1.2902625-1.4086687v-.34566599h-.0370525c-.237565.29148633-.69526.54613198-1.272825.54613198-1.2085325 0-2.31572-1.04675254-2.31572-2.39365718 0-1.35665921 1.1071875-2.41207502 2.31572-2.41207502.576475 0 1.03417.25464067 1.272825.53746124h.0370525v-.3911774h1.0080175zm-.932825 2.26687502c0-.84628406-.56776-1.46501853-1.2902625-1.46501853-.7323125 0-1.34584.61873447-1.34584 1.46501853 0 .83761831.6135275 1.44767955 1.34584 1.44767955.7225025 0 1.2902625-.61006124 1.2902625-1.44767955z"/><path d="m24.6158775.49382418v7.04335096h-1.03526v-7.04335096z"/><path d="m28.65013 6.0721591.8238525.54612949c-.2659.3911774-.9066725 1.06517288-2.0138575 1.06517288-1.373085 0-2.39854-1.05542079-2.39854-2.40340927 0-1.42925921 1.0341725-2.40340678 2.279755-2.40340678 1.2543025 0 1.86783.99256791 2.068345 1.5289478l.110065.2730635-3.2311075 1.33065198c.2473725.48220023.632055.72817514 1.1714825.72817514.540515 0 .9153875-.26439774 1.190005-.66532474zm-2.535845-.86470938 2.1598825-.89179548c-.118785-.30015706-.4762225-.50928882-.896865-.50928882-.539425 0-1.2902625.47353198-1.2630175 1.4010843z"/><path d="m3.942245 4.65590102v-1.01965899h3.455595c.0337825.17771029.0512175.38792588.0512175.61548046 0 .76501582-.2103225 1.71099344-.888145 2.38498644-.6593.68266373-1.501675 1.04675254-2.6175775 1.04675254-2.068345 0-3.807585-1.67523661-3.807585-3.73189356 0-2.05665944 1.73924-3.73189356 3.807585-3.73189356 1.144235 0 1.9593675.4464409 2.5718075 1.02832972l-.7235925.71950689c-.43917-.40960023-1.0341725-.72817514-1.849305-.72817514-1.5103925 0-2.69168 1.21037288-2.69168 2.71223209s1.1812875 2.71223209 2.69168 2.71223209c.979685 0 1.537635-.3911774 1.8950725-.74659548.289875-.2882348.48058-.70000271.5557725-1.26238486l-2.450845.00099435z"/></g></g></svg>

<?xml version="1.0" encoding="UTF-8"?>
<svg width="172px" height="44px" viewBox="0 0 172 44" version="1.1" xmlns="http://www.w3.org/2000/svg" xmlns:xlink="http://www.w3.org/1999/xlink">
    <!-- Generator: Sketch 64 (93537) - https://sketch.com -->
    <title>angular</title>
    <desc>Created with Sketch.</desc>
    <g id="Patinetview-creative" stroke="none" stroke-width="1" fill="none" fill-rule="evenodd">
        <g id="Artboard" transform="translate(-543.000000, -118.000000)" fill-rule="nonzero">
            <g id="angular" transform="translate(543.000000, 118.000000)">
                <g id="Group" transform="translate(44.250000, 11.435028)" fill="#000000">
                    <polygon id="Path" points="2.35175 2.91220339 13.18325 17.0903955 13.18325 2.91220339 15.3485 2.91220339 15.3485 20.512452 13.059 20.512452 2.2285 6.20971751 2.2285 20.512452 0.062 20.512452 0.062 2.91220339"></polygon>
                    <path d="M32.9245,19.8231186 C31.4975,20.3655367 29.95775,20.6357514 28.3075,20.6357514 C21.89675,20.6357514 18.69,17.5796158 18.69,11.4663503 C18.69,5.68146893 21.7845,2.78865537 27.9725,2.78865537 C29.748,2.78865537 31.39875,3.03550282 32.92425,3.52845198 L32.92425,5.49751412 C31.3985,4.92302825 29.82975,4.63541243 28.22,4.63541243 C23.3935,4.63541243 20.98075,6.91322034 20.98075,11.4663503 C20.98075,16.348113 23.35575,18.7902373 28.11025,18.7902373 C28.8685,18.7902373 29.71,18.6912994 30.635,18.4936723 L30.635,12.5126554 L32.9245,12.5126554 L32.9245,19.8231186 Z" id="Path"></path>
                    <path d="M36.57625,13.7185537 L36.57625,2.91294915 L38.8645,2.91294915 L38.8645,13.7183051 C38.8645,17.0988475 40.55675,18.7909831 43.9405,18.7909831 C47.32325,18.7909831 49.0155,17.0985989 49.0155,13.7183051 L49.0155,2.91294915 L51.305,2.91294915 L51.305,13.7183051 C51.305,18.3313446 48.85025,20.6364972 43.9405,20.6364972 C39.031,20.6367458 36.57625,18.3313446 36.57625,13.7185537 Z" id="Path"></path>
                    <polygon id="Path" points="66.9395 18.6669379 66.9395 20.512452 55.39075 20.512452 55.39075 2.91220339 57.67925 2.91220339 57.67925 18.6669379"></polygon>
                    <polygon id="Path" points="76.66725 0.59064407 85.4675 20.5129492 82.93075 20.5129492 80.64 14.9734237 74.787 14.9734237 75.41775 13.1294011 79.87375 13.1294011 76.56875 5.15272316 70.24325 20.5129492 67.86725 20.5129492"></polygon>
                    <path d="M87.8815,20.512452 L87.8815,2.91220339 L95.43225,2.91220339 C98.7995,2.91220339 100.4825,4.3199548 100.4825,7.13346893 C100.4825,9.42345763 98.83725,11.1180791 95.544,12.216339 L101.62125,20.512452 L98.601,20.512452 L92.97,12.5989153 L92.97,11.1108701 C96.3525,10.5761582 98.04375,9.284 98.04375,7.23340113 C98.04375,5.60937853 97.10325,4.79575141 95.223,4.79575141 L90.1715,4.79575141 L90.1715,20.5131977 L87.88175,20.5131977 L87.8815,20.512452 Z" id="Path"></path>
                    <path d="M110.1995,2.91220339 L110.1995,15.4420113 C110.1995,18.8223051 108.19825,20.5122034 104.19525,20.5122034 L104.19525,18.6664407 C106.67125,18.6664407 107.9095,17.5903051 107.9095,15.4417627 L107.9095,2.91220339 L110.1995,2.91220339 Z" id="Path"></path>
                    <path d="M114.28425,19.8969492 L114.28425,17.804339 C116.1415,18.4606102 118.146,18.7899887 120.3,18.7899887 C123.345,18.7899887 124.868,17.6820339 124.868,15.4648814 C124.868,13.5805876 123.74475,12.6347119 121.5005,12.6347119 L119.22225,12.6347119 C115.518,12.6347119 113.664,11.0357966 113.664,7.83548023 C113.664,4.47184181 116.03775,2.78815819 120.78375,2.78815819 C122.846,2.78815819 124.76425,3.03624859 126.539,3.5279548 L126.539,5.62031638 C124.76375,4.96329944 122.846,4.63491525 120.78375,4.63491525 C117.565,4.63491525 115.956,5.70210169 115.956,7.83548023 C115.956,9.72176271 117.0445,10.6656497 119.22225,10.6656497 L121.5005,10.6656497 C125.2705,10.6656497 127.1575,12.2668023 127.1575,15.4648814 C127.1575,18.9122938 124.872,20.6357514 120.2995,20.6357514 C118.146,20.6357514 116.1415,20.3886554 114.28425,19.8969492 L114.28425,19.8969492 Z" id="Path"></path>
                    <polygon id="Path" points="2.93075 2.33722034 13.76125 16.515661 13.76125 2.33722034 15.92775 2.33722034 15.92775 19.9374689 13.638 19.9374689 2.80675 5.63473446 2.80675 19.9374689 0.64125 19.9374689 0.64125 2.33722034"></polygon>
                    <path d="M33.50375,19.2481356 C32.07675,19.7905537 30.53775,20.0605198 28.887,20.0605198 C22.47575,20.0605198 19.2695,17.0046328 19.2695,10.8913672 C19.2695,5.10648588 22.364,2.21342373 28.55325,2.21342373 C30.32725,2.21342373 31.97825,2.46051977 33.50375,2.95322034 L33.50375,4.9220339 C31.978,4.34754802 30.40925,4.0599322 28.8005,4.0599322 C23.97375,4.0599322 21.5605,6.33774011 21.5605,10.8908701 C21.5605,15.7728814 23.9365,18.2150056 28.68975,18.2150056 C29.44825,18.2150056 30.29075,18.116565 31.2155,17.9184407 L31.2155,11.9371751 L33.504,11.9371751 L33.50375,19.2481356 Z" id="Path"></path>
                    <path d="M37.15525,13.1430734 L37.15525,2.33622599 L39.4435,2.33622599 L39.4435,13.1428249 C39.4435,16.5231186 41.13575,18.2142599 44.51975,18.2142599 C47.90225,18.2142599 49.5945,16.5228701 49.5945,13.1428249 L49.5945,2.33622599 L51.884,2.33622599 L51.884,13.1428249 C51.884,17.7556158 49.42925,20.059774 44.51975,20.059774 C39.61,20.059774 37.15525,17.756113 37.15525,13.1430734 Z" id="Path"></path>
                    <polygon id="Path" points="67.51775 18.0909605 67.51775 19.9364746 55.97 19.9364746 55.97 2.33622599 58.2585 2.33622599 58.2585 18.0909605"></polygon>
                    <polygon id="Path" points="77.24675 0.0139209 86.047 19.9372203 83.50875 19.9372203 81.21925 14.3981921 75.365 14.3981921 75.99725 12.552678 80.452 12.552678 77.148 4.576 70.8225 19.9372203 68.44625 19.9372203"></polygon>
                    <path d="M88.46075,19.9374689 L88.46075,2.33722034 L96.01125,2.33722034 C99.37875,2.33722034 101.06025,3.7439774 101.06025,6.55873446 C101.06025,8.84748023 99.416,10.543096 96.123,11.6411073 L102.2005,19.9374689 L99.179,19.9374689 L93.54875,12.0236836 L93.54875,10.5341469 C96.9315,9.99943503 98.6235,8.70851977 98.6235,6.65667797 C98.6235,5.03265537 97.682,4.22027119 95.8005,4.22027119 L90.7505,4.22027119 L90.7505,19.9374689 L88.46075,19.9374689 Z" id="Path"></path>
                    <path d="M110.77875,2.33622599 L110.77875,14.8662825 C110.77875,18.2475706 108.7775,19.9364746 104.77475,19.9364746 L104.77475,18.0909605 C107.2505,18.0909605 108.48875,17.0145763 108.48875,14.8660339 L108.48875,2.33622599 L110.77875,2.33622599 Z" id="Path"></path>
                    <path d="M114.8625,19.3209718 L114.8625,17.2288588 C116.72,17.8848814 118.72425,18.2145085 120.8785,18.2145085 C123.92325,18.2145085 125.44625,17.1060565 125.44625,14.8901469 C125.44625,13.0048588 124.32325,12.0599774 122.07875,12.0599774 L119.8005,12.0599774 C116.09625,12.0599774 114.2425,10.4600678 114.2425,7.25950282 C114.2425,3.89586441 116.61525,2.21242938 121.362,2.21242938 C123.42425,2.21242938 125.34275,2.46051977 127.1175,2.95222599 L127.1175,5.04483616 C125.342,4.38757062 123.42425,4.05918644 121.362,4.05918644 C118.14325,4.05918644 116.53425,5.12637288 116.53425,7.25975141 C116.53425,9.1460339 117.622,10.0899209 119.8005,10.0899209 L122.07875,10.0899209 C125.8485,10.0899209 127.73575,11.6903277 127.73575,14.8901469 C127.73575,18.3368136 125.4505,20.0600226 120.878,20.0600226 C118.7245,20.059774 116.71975,19.812678 114.8625,19.3209718 L114.8625,19.3209718 Z" id="Path"></path>
                    <path d="M93.71275,29.3318418 L92.872,26.7900339 L92.27425,26.7900339 L93.4345,30.0017853 C93.4075,30.0716384 93.36325,30.1780339 93.30325,30.3217175 C93.24275,30.4654011 93.20725,30.544452 93.198,30.560113 C93.16675,30.6068475 93.12825,30.6461243 93.082,30.6781921 C93.036,30.7102599 92.9645,30.7261695 92.8675,30.7261695 C92.83625,30.7261695 92.79975,30.7229379 92.75875,30.7174689 C92.718,30.7117514 92.6515,30.6960904 92.56,30.6707345 L92.56,31.1487684 C92.6185,31.1644294 92.66825,31.1746215 92.70775,31.1808362 C92.74775,31.1863051 92.80525,31.1892881 92.8795,31.1892881 C93.184,31.1892881 93.3985,31.1020339 93.52325,30.9272768 C93.64825,30.7525198 93.8625,30.2675254 94.16725,29.4717966 C94.29625,29.1339661 94.456,28.696452 94.64775,28.1604972 C94.90325,27.4472994 95.06875,26.9906441 95.1425,26.7902825 L94.5595,26.7902825 L93.71275,29.3318418 Z M90.591,29.5458757 C90.21075,29.5458757 89.951,29.3743503 89.812,29.0303051 C89.7375,28.8480904 89.70075,28.6101921 89.70075,28.3168588 C89.70075,27.9111638 89.791,27.6198192 89.97275,27.4425763 C90.154,27.2663277 90.365,27.1778305 90.606,27.1778305 C90.882,27.1778305 91.09125,27.2859661 91.23375,27.5012429 C91.376,27.7167684 91.447,27.9887232 91.447,28.3168588 C91.447,28.6860113 91.37625,28.9830734 91.23375,29.2082938 C91.09125,29.4332655 90.877,29.5458757 90.591,29.5458757 L90.591,29.5458757 Z M89.21675,29.9100565 L89.703,29.9100565 L89.703,29.511322 C89.8145,29.6612203 89.9195,29.7698531 90.01775,29.8377175 C90.18225,29.9523164 90.38425,30.0094915 90.6235,30.0094915 C91.051,30.0094915 91.38525,29.8464181 91.62675,29.519774 C91.868,29.1933785 91.98825,28.7839548 91.98825,28.2907571 C91.98825,27.7702147 91.8665,27.376452 91.622,27.1094689 C91.37775,26.8424859 91.05975,26.7089944 90.668,26.7089944 C90.4795,26.7089944 90.30525,26.7482712 90.144,26.8270734 C89.98325,26.9056271 89.8455,27.0197288 89.7295,27.1693785 L89.7295,25.6167006 L89.21675,25.6167006 L89.21675,29.9100565 Z" id="Shape"></path>
                </g>
                <g id="Group" fill="#000000">
                    <polygon id="Path" points="3.40525 34.3823955 20.83275 43.9067797 38.35 34.2533785 41.6155 7.32338983 20.81075 0.21751412 0.1385 7.45141243"></polygon>
                </g>
                <path d="M25.935,23.3351638 L20.7625,25.7402486 L15.31075,25.7402486 L12.748,32.1140339 L7.98125,32.2017853 L20.7625,3.92867797 L25.935,23.3351638 Z M25.435,22.1242938 L20.79675,12.9939209 L16.99225,21.9671864 L20.76225,21.9671864 L25.435,22.1242938 Z" id="Shape" fill="#FFFFFF"></path>
                <polygon id="Path" fill="#FFFFFF" points="25.1135 21.9741469 20.772 21.9741469 20.76225 25.7345311 26.7655 25.7402486 29.57125 32.2027797 34.13225 32.2868023 20.76225 3.92867797 20.7965 12.9939209"></polygon>
                <g id="Group" transform="translate(141.500000, 33.807910)" fill="#000000">
                    <path d="M12.7103675,5.28113356 C12.7103675,6.66488384 11.6217075,7.68454282 10.285675,7.68454282 C8.9496425,7.68454282 7.8609825,6.66488384 7.8609825,5.28113356 C7.8609825,3.88763616 8.9496425,2.87772927 10.285675,2.87772927 C11.6217075,2.87772927 12.7103675,3.88763616 12.7103675,5.28113356 Z M11.6489525,5.28113356 C11.6489525,4.41642915 11.0179875,3.82478576 10.285675,3.82478576 C9.5533625,3.82478576 8.9224,4.41642915 8.9224,5.28113356 C8.9224,6.13717469 9.5533625,6.73748384 10.285675,6.73748384 C11.0179875,6.73748384 11.6489525,6.13609085 11.6489525,5.28113356 L11.6489525,5.28113356 Z" id="Shape"></path>
                    <path d="M17.941165,5.28113356 C17.941165,6.66488384 16.8525025,7.68454282 15.51647,7.68454282 C14.1804375,7.68454282 13.09178,6.66488384 13.09178,5.28113356 C13.09178,3.88871751 14.1804375,2.87772927 15.51647,2.87772927 C16.8525025,2.87772927 17.941165,3.88763616 17.941165,5.28113356 Z M16.8797475,5.28113356 C16.8797475,4.41642915 16.248785,3.82478576 15.51647,3.82478576 C14.78416,3.82478576 14.153195,4.41642915 14.153195,5.28113356 C14.153195,6.13717469 14.78416,6.73748384 15.51647,6.73748384 C16.248785,6.73748384 16.8797475,6.13609085 16.8797475,5.28113356 L16.8797475,5.28113356 Z" id="Shape"></path>
                    <path d="M22.95401,3.02292927 L22.95401,7.33779299 C22.95401,9.11271819 21.9013125,9.83764181 20.65682,9.83764181 C19.48534,9.83764181 18.78027,9.05853853 18.5143725,8.42138621 L19.4384775,8.03887706 C19.6030325,8.43005695 20.00624,8.89166418 20.65573,8.89166418 C21.452335,8.89166418 21.9459925,8.40296588 21.9459925,7.48299548 L21.9459925,7.13732949 L21.90894,7.13732949 C21.671375,7.42881582 21.21368,7.68346147 20.636115,7.68346147 C19.4275825,7.68346147 18.320395,6.63670893 18.320395,5.28980429 C18.320395,3.93314508 19.4275825,2.87772927 20.636115,2.87772927 C21.21259,2.87772927 21.670285,3.13236994 21.90894,3.41519051 L21.9459925,3.41519051 L21.9459925,3.02401311 L22.95401,3.02401311 L22.95401,3.02292927 Z M22.021185,5.28980429 C22.021185,4.44352023 21.453425,3.82478576 20.7309225,3.82478576 C19.99861,3.82478576 19.3850825,4.44352023 19.3850825,5.28980429 C19.3850825,6.1274226 19.99861,6.73748384 20.7309225,6.73748384 C21.453425,6.73748384 22.021185,6.1274226 22.021185,5.28980429 Z" id="Shape"></path>
                    <polygon id="Path" points="24.6158775 0.49382418 24.6158775 7.53717514 23.5806175 7.53717514 23.5806175 0.49382418"></polygon>
                    <path d="M28.65013,6.0721591 L29.4739825,6.61828859 C29.2080825,7.00946599 28.56731,7.68346147 27.460125,7.68346147 C26.08704,7.68346147 25.061585,6.62804068 25.061585,5.2800522 C25.061585,3.85079299 26.0957575,2.87664542 27.34134,2.87664542 C28.5956425,2.87664542 29.20917,3.86921333 29.409685,4.40559322 L29.51975,4.67865672 L26.2886425,6.0093087 C26.536015,6.49150893 26.9206975,6.73748384 27.460125,6.73748384 C28.00064,6.73748384 28.3755125,6.4730861 28.65013,6.0721591 L28.65013,6.0721591 Z M26.114285,5.20744972 L28.2741675,4.31565424 C28.1553825,4.01549718 27.797945,3.80636542 27.3773025,3.80636542 C26.8378775,3.80636542 26.08704,4.2798974 26.114285,5.20744972 L26.114285,5.20744972 Z" id="Shape"></path>
                    <path d="M3.942245,4.65590102 L3.942245,3.63624203 L7.39784,3.63624203 C7.4316225,3.81395232 7.4490575,4.02416791 7.4490575,4.25172249 C7.4490575,5.01673831 7.238735,5.96271593 6.5609125,6.63670893 C5.9016125,7.31937266 5.0592375,7.68346147 3.943335,7.68346147 C1.87499,7.68346147 0.13575,6.00822486 0.13575,3.95156791 C0.13575,1.89490847 1.87499,0.21967435 3.943335,0.21967435 C5.08757,0.21967435 5.9027025,0.66611525 6.5151425,1.24800407 L5.79155,1.96751096 C5.35238,1.55791073 4.7573775,1.23933582 3.942245,1.23933582 C2.4318525,1.23933582 1.250565,2.4497087 1.250565,3.95156791 C1.250565,5.45342712 2.4318525,6.6638 3.942245,6.6638 C4.92193,6.6638 5.47988,6.2726226 5.8373175,5.91720452 C6.1271925,5.62896972 6.3178975,5.21720181 6.39309,4.65481966 L3.942245,4.65581401 L3.942245,4.65590102 Z" id="Path"></path>
                </g>
            </g>
        </g>
    </g>
</svg>
